src/components/00-materials/images-raw/Within 72 HRS.svg

<svg width="96" height="96" viewBox="0 0 96 96" fill="none" xmlns="http://www.w3.org/2000/svg">
<path d="M37 38.9999H46L38 55.9999M47.99 20.9399L47.96 27.9399M47.79 67.9399L47.76 74.9399M27.88 47.8599L20.88 47.8199M74.87 48.0599L67.87 48.0299M73.01 17.0499L72.97 26.0499L63.97 26.0199M28.96 28.8599L29.95 29.8599M28.79 66.8599L29.8 65.8599M66.79 67.0299L65.8 66.0199M23.1 37.5499L24.4 38.0999M37.48 72.7199L38.03 71.4199M72.65 58.3399L71.35 57.7899M37.7 23.0699L38.24 24.3799M23.01 58.1199L24.31 57.5799M58.05 72.8099L57.51 71.5099M72.56 26.0499C66.9881 19.7842 59.2401 15.8744 50.8898 15.1148C42.5395 14.3552 34.2131 16.8026 27.6021 21.96C20.991 27.1175 16.5911 34.5981 15.2961 42.8822C14.0011 51.1664 15.908 59.6329 20.6297 66.5619C25.3513 73.4909 32.5334 78.3628 40.7172 80.1879C48.901 82.0129 57.4726 80.6543 64.6909 76.3881C71.9092 72.1218 77.2328 65.2678 79.5803 57.2183C81.9279 49.1688 81.1233 40.5276 77.33 33.0499L72.56 26.0499Z" stroke="#00008F" stroke-width="2" stroke-linecap="round" stroke-linejoin="round"/>
<path d="M59 56H50L57.66 45.5C58.0801 44.8703 58.3214 44.1384 58.358 43.3823C58.3947 42.6262 58.2253 41.8744 57.868 41.2071C57.5108 40.5397 56.979 39.9819 56.3294 39.5932C55.6799 39.2045 54.937 38.9995 54.18 39C53.0714 39 52.0082 39.4404 51.2243 40.2243C50.4404 41.0082 50 42.0714 50 43.18" stroke="#00008F" stroke-width="2" stroke-linecap="round" stroke-linejoin="round"/>
</svg>

<svg width="96" height="96" viewBox="0 0 96 96" fill="none" xmlns="http://www.w3.org/2000/svg"><path d="M37 39h9l-8 17m9.99-35.06l-.03 7m-.17 40l-.03 7M27.88 47.86l-7-.04m53.99.24l-7-.03m5.14-30.98l-.04 9-9-.03m-35.01 2.84l.99 1m-1.16 37l1.01-1m36.99 1.17l-.99-1.01M23.1 37.55l1.3.55m13.08 34.62l.55-1.3m34.62-13.08l-1.3-.55M37.7 23.07l.54 1.31M23.01 58.12l1.3-.54m33.74 15.23l-.54-1.3m15.05-45.46a33 33 0 104.77 7l-4.77-7z" stroke="#00008F" stroke-width="2" stroke-linecap="round" stroke-linejoin="round"/><path d="M59 56h-9l7.66-10.5a4.18 4.18 0 00-6.436-5.276A4.18 4.18 0 0050 43.18" stroke="#00008F" stroke-width="2" stroke-linecap="round" stroke-linejoin="round"/></svg>
